; HEADER_BLOCK_START
; generated by OrcaSlicer 2.1.1 on 2024-07-24 at 11:10:13
; total layer number: 150
; filament_density: 1.26
; filament_diameter: 1.75
; max_z_height: 30.09
; HEADER_BLOCK_END

; THUMBNAIL_BLOCK_START

;
; THUMBNAIL_BLOCK_END

; THUMBNAIL_BLOCK_START

;
; THUMBNAIL_BLOCK_END

; external perimeters extrusion width = 0.45mm
; perimeters extrusion width = 0.45mm
; infill extrusion width = 0.52mm
; solid infill extrusion width = 0.60mm
; top infill extrusion width = 0.40mm
; first layer extrusion width = 0.70mm

; external perimeters extrusion width = 0.45mm
; perimeters extrusion width = 0.45mm
; infill extrusion width = 0.52mm
; solid infill extrusion width = 0.60mm
; top infill extrusion width = 0.40mm
; first layer extrusion width = 0.70mm

; EXECUTABLE_BLOCK_START
EXCLUDE_OBJECT_DEFINE NAME=OrcaCube_id_0_copy_0 CENTER=165,179.261 POLYGON=[[150,164.261],[175.981,164.261],[180,164.261],[180,190.242],[180,194.261],[154.019,194.261],[150,194.261],[150,168.281],[150,164.261]]
EXCLUDE_OBJECT_DEFINE NAME=OrcaPlug_id_1_copy_0 CENTER=165.344,146.737 POLYGON=[[154.344,146.737],[154.352,146.32],[154.376,145.905],[154.415,145.49],[154.47,145.078],[154.54,144.667],[154.626,144.26],[154.728,143.856],[154.844,143.456],[154.976,143.062],[155.123,142.672],[155.284,142.288],[155.459,141.91],[155.649,141.54],[155.853,141.177],[156.07,140.821],[156.3,140.475],[156.544,140.137],[156.8,139.809],[157.068,139.49],[157.348,139.182],[157.64,138.885],[157.942,138.599],[158.256,138.325],[158.579,138.063],[158.912,137.813],[159.254,137.576],[159.605,137.352],[159.965,137.142],[160.332,136.945],[160.706,136.762],[161.086,136.594],[161.473,136.44],[161.866,136.301],[162.263,136.177],[162.665,136.068],[163.071,135.974],[163.479,135.896],[163.891,135.833],[164.305,135.786],[164.72,135.754],[165.136,135.739],[165.552,135.739],[165.968,135.754],[166.383,135.786],[166.797,135.833],[167.209,135.896],[167.617,135.974],[168.023,136.068],[168.425,136.177],[168.822,136.301],[169.215,136.44],[169.602,136.594],[169.982,136.762],[170.356,136.945],[170.723,137.142],[171.083,137.352],[171.434,137.576],[171.776,137.813],[172.109,138.063],[172.432,138.325],[172.746,138.599],[173.048,138.885],[173.34,139.182],[173.62,139.49],[173.888,139.809],[174.144,140.137],[174.388,140.475],[174.618,140.822],[174.835,141.177],[175.039,141.54],[175.229,141.91],[175.404,142.288],[175.565,142.672],[175.712,143.062],[175.844,143.456],[175.96,143.856],[176.062,144.26],[176.148,144.667],[176.218,145.078],[176.273,145.49],[176.312,145.905],[176.336,146.32],[176.344,146.737],[176.336,147.153],[176.312,147.569],[176.273,147.983],[176.218,148.396],[176.148,148.806],[176.062,149.213],[175.96,149.617],[175.844,150.017],[175.712,150.412],[175.565,150.802],[175.404,151.185],[175.229,151.563],[175.039,151.934],[174.835,152.297],[174.618,152.652],[174.388,152.999],[174.144,153.336],[173.888,153.665],[173.62,153.983],[173.34,154.291],[173.048,154.588],[172.746,154.874],[172.432,155.148],[172.109,155.41],[171.776,155.66],[171.434,155.897],[171.083,156.121],[170.723,156.332],[170.356,156.528],[169.982,156.711],[169.602,156.879],[169.215,157.033],[168.822,157.172],[168.425,157.296],[168.023,157.405],[167.617,157.499],[167.209,157.577],[166.797,157.64],[166.383,157.687],[165.968,157.719],[165.552,157.735],[165.136,157.735],[164.72,157.719],[164.305,157.687],[163.891,157.64],[163.479,157.577],[163.071,157.499],[162.665,157.405],[162.263,157.296],[161.866,157.172],[161.473,157.033],[161.086,156.879],[160.706,156.711],[160.332,156.528],[159.965,156.332],[159.605,156.121],[159.254,155.897],[158.912,155.66],[158.579,155.41],[158.256,155.148],[157.942,154.874],[157.64,154.588],[157.348,154.291],[157.068,153.983],[156.8,153.665],[156.544,153.336],[156.3,152.999],[156.07,152.652],[155.853,152.297],[155.649,151.933],[155.459,151.563],[155.284,151.185],[155.123,150.802],[154.976,150.412],[154.844,150.017],[154.728,149.617],[154.626,149.213],[154.54,148.806],[154.47,148.396],[154.415,147.983],[154.375,147.569],[154.352,147.153],[154.344,146.737]]
M73 P0 R44
;TYPE:Custom
PRINT_START EXTRUDER=205 BED=55 MESH_MIN=143.661,129.274 MESH_MAX=186.339,200.601 LAYERS=150 NOZZLE_SIZE=0.4
G90
G21
M83 ; use relative distances for extrusion
; filament start gcode
M106 P3 S255
M106 S0
;LAYER_CHANGE
;Z:0.29
;HEIGHT:0.29
;BEFORE_LAYER_CHANGE
;0.29
BEFORE_LAYER_CHANGE HEIGHT=0.29 LAYER=0
G92 E0

G1 E-1 F3600
;AFTER_LAYER_CHANGE
;0.29
AFTER_LAYER_CHANGE
;_SET_FAN_SPEED_CHANGING_LAYER
SET_VELOCITY_LIMIT ACCEL=500 ACCEL_TO_DECEL=375
G1 X153.252 Y134.582 F27000
G1 Z.4
G1 Z.29
G1 E1 F3600
;TYPE:Skirt
;WIDTH:0.7
G1 F3000
G1 X154.899 Y133.14 E.16323
G1 X156.852 Y131.842 E.17496
G1 X158.821 Y130.881 E.16337
G1 X161.052 Y130.137 E.17545
G1 X163.192 Y129.727 E.16247
G1 X165.563 Y129.593 E.17719
G1 X167.067 Y129.678 E.11235
G1 X168.373 Y129.861 E.09831
G1 X170.881 Y130.51 E.19322
G1 X173.264 Y131.53 E.19338
G1 X175.469 Y132.9 E.19363
G1 X177.438 Y134.583 E.19317
G1 X179.124 Y136.536 E.19247
G1 X180.506 Y138.732 E.19349
G1 X181.54 Y141.11 E.19345
G1 X181.923 Y142.368 E.0981
G1 X182.274 Y144.029 E.12662
G1 X185.943 Y167.214 E1.75083
G1 X186.021 Y168.195 E.07338
G1 X186.021 Y190.328 E1.6508
G1 X185.624 Y192.524 E.16646
G1 X184.182 Y194.765 E.19876
G1 X180.504 Y198.444 E.38805
G1 X178.67 Y199.716 E.16646
G1 X176.066 Y200.282 E.19876
G1 X153.934 Y200.282 E1.6508
G1 X151.738 Y199.885 E.16646
G1 X149.496 Y198.444 E.19876
G1 X145.818 Y194.765 E.38805
G1 X144.545 Y192.932 E.16646
G1 X143.979 Y190.328 E.19876
G1 X143.979 Y168.195 E1.6508
G1 X144.087 Y167.037 E.08674
G1 X148.613 Y142.989 E1.82516
G1 X149.368 Y140.514 E.19299
G1 X150.489 Y138.176 E.19343
G1 X151.701 Y136.353 E.16324
G1 X153.226 Y134.612 E.17266
G1 X153.705 Y135.031 F27000
G1 F3000
G1 X153.707 Y135.028 E.00029
G1 X155.282 Y133.651 E.15604
G1 X157.175 Y132.392 E.16956
G1 X159.056 Y131.473 E.15616
G1 X161.219 Y130.753 E.17007
G1 X163.264 Y130.361 E.15528
G1 X165.563 Y130.231 E.17175
G1 X166.995 Y130.312 E.10701
G1 X168.253 Y130.487 E.09468
G1 X170.667 Y131.111 E.18601
G1 X172.962 Y132.092 E.18615
G1 X175.086 Y133.411 E.18647
G1 X176.982 Y135.03 E.18597
G1 X177.837 Y135.947 E.09352
G1 X178.852 Y137.248 E.12303
G1 X180.129 Y139.394 E.1863
G1 X181.067 Y141.708 E.18626
G1 X181.646 Y144.138 E.18627
G1 X185.313 Y167.314 E1.75016
G1 X185.383 Y168.195 E.06593
G1 X185.383 Y190.328 E1.6508
G1 X184.986 Y192.404 E.1577
G1 X183.732 Y194.314 E.17044
G1 X180.053 Y197.993 E.38805
G1 X178.304 Y199.181 E.1577
G1 X176.066 Y199.644 E.17044
G1 X153.934 Y199.644 E1.6508
G1 X151.857 Y199.248 E.1577
G1 X149.947 Y197.993 E.17044
G1 X146.268 Y194.314 E.38805
G1 X145.08 Y192.565 E.1577
G1 X144.617 Y190.328 E.17044
G1 X144.617 Y168.195 E1.6508
G1 X144.714 Y167.155 E.07793
G1 X149.237 Y143.121 E1.82409
G1 X149.965 Y140.738 E.18581
G1 X151.045 Y138.488 E.18623
G1 X152.203 Y136.745 E.15604
G1 X153.678 Y135.061 E.16697
;WIPE_START
G1 X153.707 Y135.028 E-.04388
G1 X154.427 Y134.399 E-.95612
;WIPE_END
EXCLUDE_OBJECT_START NAME=OrcaCube_id_0_copy_0
G1 X153.918 Y142.014 Z.69 F27000
G1 X150.705 Y190.141 Z.69
G1 Z.29
G1 E1 F3600
;TYPE:Outer wall
;WIDTH:0.7
G1 F2400
G1 X150.705 Y168.382 E1.62299
G1 X154.12 Y164.966 E.36024
G1 X175.88 Y164.966 E1.62299
G1 X179.295 Y168.382 E.36024
G1 X179.295 Y190.141 E1.62299
G1 X175.88 Y193.556 E.36024
G1 X154.12 Y193.556 E1.62299
G1 X150.733 Y190.169 E.35726
G1 X150.748 Y190.074
;WIPE_START
G1 X150.732 Y189.169 E-1
;WIPE_END
G1 X151.212 Y188.612 Z.69 F27000
G1 X153.189 Y177.247
G1 X153.274 Y176.802
G1 X153.375 Y176.361
G1 X153.493 Y175.924
G1 X153.627 Y175.492
G1 X153.774 Y175.073
G1 X153.941 Y174.652
G1 X154.123 Y174.238
G1 X154.32 Y173.83
G1 X154.533 Y173.431
G1 X154.756 Y173.048
G1 X154.998 Y172.665
G1 X155.254 Y172.292
G1 X155.525 Y171.928
G1 X155.808 Y171.576
G1 X156.099 Y171.241
G1 X156.408 Y170.911
G1 X156.73 Y170.592
G1 X157.063 Y170.286
G1 X157.401 Y169.998
G1 X157.756 Y169.718
G1 X158.122 Y169.451
G1 X158.498 Y169.198
G1 X158.882 Y168.959
G1 X159.268 Y168.74
G1 X159.671 Y168.53
G1 X160.083 Y168.335
G1 X160.488 Y168.162
G1 X160.91 Y168
G1 X161.339 Y167.853
G1 X161.773 Y167.723
G1 X162.211 Y167.609
G1 X162.653 Y167.512
G1 X163.087 Y167.434
G1 X163.535 Y167.37
G1 X163.998 Y167.322
G1 X164.437 Y167.293
G1 X164.877 Y167.281
G1 X165.343 Y167.285
G1 X165.795 Y167.306
G1 X166.234 Y167.344
G1 X166.683 Y167.399
G1 X167.13 Y167.471
G1 X167.574 Y167.56
G1 X168.015 Y167.665
G1 X168.439 Y167.784
G1 X168.777 Y167.892
G1 X168.622 Y168.377
G1 Z.29
G1 E1 F3600
G1 F2400
G1 X168.694 Y168.399 E.00564
G3 X153.528 Y179.485 I-3.697 J10.86 E3.73465
G3 X156.338 Y171.745 I11.447 J-.225 E.62823
G1 X157.071 Y170.967 E.07976
G3 X160.668 Y168.636 I8.192 J8.701 E.32138
G3 X164.043 Y167.827 I4.342 J10.659 E.25992
G1 X165.31 Y167.792 E.09454
G3 X167.875 Y168.154 I-.313 J11.468 E.19362
G1 X168.584 Y168.365 E.05514
G1 X168.633 Y168.366
G1 E-1 F3600
G1 X176.257 Y168.733 Z.69 F27000
G1 X179.104 Y168.869 Z.69
G1 Z.29
G1 E1 F3600
;TYPE:Bottom surface
;WIDTH:0.703755
G1 F4800
G1 X175.679 Y165.445 E.36337
G1 X174.772 Y165.445 E.06807
G1 X178.817 Y169.49 E.42918
G1 X178.817 Y170.397 E.06807
G1 X173.864 Y165.445 E.52545
G1 X172.957 Y165.445 E.06807
G1 X178.817 Y171.304 E.62171
G1 X178.817 Y172.211 E.06807
G1 X172.05 Y165.445 E.71797
G1 X171.143 Y165.445 E.06807
G1 X178.817 Y173.119 E.81423
G1 X178.817 Y174.026 E.06807
G1 X170.235 Y165.445 E.91049
G1 X169.328 Y165.445 E.06807
G1 X178.817 Y174.933 E1.00676
G1 X178.817 Y175.84 E.06807
G1 X168.421 Y165.445 E1.10302
G1 X167.514 Y165.445 E.06807
G1 X171.005 Y168.936 E.37047
G3 X175.323 Y173.254 I-5.815 J10.133 E.46354
G1 X178.817 Y176.748 E.37066
G1 X178.817 Y177.655 E.06807
G1 X176.158 Y174.996 E.28207
G1 X176.267 Y175.272 E.02226
G1 X176.532 Y176.12 E.0666
G1 X176.58 Y176.325 E.01583
G1 X178.817 Y178.562 E.23734
G1 X178.817 Y179.469 E.06807
G1 X176.806 Y177.459 E.2133
G3 X176.919 Y178.479 I-6.694 J1.258 E.07708
G1 X178.817 Y180.377 E.20131
G1 X178.817 Y181.284 E.06807
G1 X176.944 Y179.411 E.19867
G3 X176.901 Y180.276 I-5.732 J.147 E.06497
G1 X178.817 Y182.191 E.20324
G1 X178.817 Y183.098 E.06807
G1 X176.803 Y181.085 E.21365
G3 X176.661 Y181.85 I-5.158 J-.561 E.05845
G1 X178.817 Y184.006 E.22871
G1 X178.817 Y184.913 E.06807
G1 X176.478 Y182.574 E.24819
G3 X176.26 Y183.264 I-4.675 J-1.093 E.05432
G1 X178.817 Y185.82 E.27125
G1 X178.817 Y186.727 E.06807
G1 X176.004 Y183.915 E.2984
G3 X175.716 Y184.534 I-4.139 J-1.548 E.05129
G1 X178.817 Y187.635 E.32895
G1 X178.817 Y188.542 E.06807
G1 X175.405 Y185.13 E.36203
G3 X175.068 Y185.701 I-4.051 J-2.003 E.04976
G1 X178.817 Y189.449 E.39772
G1 X178.817 Y189.943 E.03706
G1 X178.61 Y190.15 E.02192
G1 X174.699 Y186.238 E.41501
G3 X174.304 Y186.751 I-3.695 J-2.436 E.04858
G1 X178.156 Y190.603 E.40875
G1 X177.703 Y191.057 E.04813
G1 X173.888 Y187.243 E.40471
G1 X173.449 Y187.711 E.04816
G1 X177.249 Y191.511 E.40317
G1 X176.796 Y191.964 E.04813
G1 X172.981 Y188.15 E.40474
G3 X172.49 Y188.566 I-3.047 J-3.098 E.04834
G1 X176.342 Y192.418 E.40872
G1 X175.888 Y192.871 E.04813
G1 X171.978 Y188.961 E.4149
G1 X171.436 Y189.326 E.04904
G1 X175.188 Y193.078 E.39809
G1 X174.28 Y193.078 E.06807
G1 X170.868 Y189.666 E.36208
G3 X170.274 Y189.979 I-2.437 J-3.896 E.05042
G1 X173.373 Y193.078 E.32881
G1 X172.466 Y193.078 E.06807
G1 X169.655 Y190.267 E.29826
G1 X169.001 Y190.52 E.05263
G1 X171.559 Y193.078 E.27142
G1 X170.651 Y193.078 E.06807
G1 X168.311 Y190.737 E.24836
G3 X167.588 Y190.922 I-1.554 J-4.583 E.05603
G1 X169.744 Y193.078 E.2288
G1 X168.837 Y193.078 E.06807
G1 X166.825 Y191.066 E.21345
G3 X166.016 Y191.165 I-1.06 J-5.338 E.06119
G1 X167.93 Y193.078 E.20301
G1 X167.022 Y193.078 E.06807
G1 X165.153 Y191.208 E.19839
G3 X164.218 Y191.181 I-.283 J-6.368 E.07019
G1 X166.115 Y193.078 E.20127
G1 X165.208 Y193.078 E.06807
G1 X163.198 Y191.068 E.21325
G3 X162.063 Y190.841 I.945 J-7.651 E.08693
G1 X164.301 Y193.078 E.23741
G1 X163.393 Y193.078 E.06807
G1 X160.215 Y189.9 E.33725
G1 E-.25 F3600
;WIPE_START
G1 F4800
G1 X160.922 Y190.607 E-.75
;WIPE_END
G1 X163.781 Y183.53 Z.69 F27000
M73 P1 R44
G1 X169.799 Y168.637 Z.69
G1 Z.29
G1 E1 F3600
G1 F4800
G1 X166.606 Y165.445 E.33871
G1 X165.699 Y165.445 E.06807
G1 X167.93 Y167.675 E.23669
G2 X166.802 Y167.454 I-2.023 J7.334 E.08635
G1 X164.792 Y165.445 E.21323
G1 X163.885 Y165.445 E.06807
G1 X165.783 Y167.343 E.20145
G2 X164.858 Y167.326 I-.56 J5.093 E.06951
G1 X162.978 Y165.445 E.19957
G1 X162.07 Y165.445 E.06807
G1 X163.981 Y167.355 E.20271
G1 X163.171 Y167.453 E.06119
G1 X161.163 Y165.445 E.21305
G1 X160.256 Y165.445 E.06807
G1 X162.409 Y167.598 E.22847
G2 X161.689 Y167.785 I.912 J4.998 E.05589
G1 X159.349 Y165.445 E.2483
G1 X158.441 Y165.445 E.06807
G1 X161.003 Y168.006 E.27177
G2 X160.347 Y168.258 I1.303 J4.366 E.05272
G1 X157.534 Y165.445 E.29851
G1 X156.627 Y165.445 E.06807
G1 X159.722 Y168.54 E.32842
G2 X159.132 Y168.857 I1.759 J3.983 E.05032
G1 X155.72 Y165.445 E.36206
G1 X154.812 Y165.445 E.06807
G1 X158.566 Y169.198 E.39826
G2 X158.022 Y169.562 I2.192 J3.867 E.04912
G1 X154.112 Y165.651 E.41491
G1 X153.658 Y166.105 E.04813
G1 X157.506 Y169.953 E.40832
G2 X157.02 Y170.374 I2.631 J3.537 E.0483
G1 X153.204 Y166.559 E.40481
G1 X152.751 Y167.012 E.04813
G1 X156.554 Y170.816 E.40354
G1 X156.107 Y171.276 E.04814
G1 X152.297 Y167.466 E.40423
G1 X151.844 Y167.919 E.04813
G1 X155.695 Y171.771 E.40862
G2 X155.303 Y172.286 I3.323 J2.93 E.04862
G1 X151.39 Y168.373 E.41521
G1 X151.183 Y168.58 E.02192
G1 X151.183 Y169.074 E.03707
G1 X154.935 Y172.826 E.39809
G1 X154.593 Y173.39 E.04955
G1 X151.183 Y169.981 E.36173
G1 X151.183 Y170.888 E.06807
G1 X154.283 Y173.987 E.32884
G2 X153.998 Y174.61 I4.076 J2.241 E.0514
G1 X151.183 Y171.795 E.29863
G1 X151.183 Y172.703 E.06807
G1 X153.743 Y175.262 E.27157
G1 X153.518 Y175.945 E.05392
G1 X151.183 Y173.61 E.24774
G1 X151.183 Y174.517 E.06807
G1 X153.336 Y176.67 E.22839
G2 X153.195 Y177.437 I4.887 J1.291 E.05855
G1 X151.183 Y175.424 E.21349
G1 X151.183 Y176.332 E.06807
G1 X153.099 Y178.247 E.20324
G2 X153.056 Y179.111 I5.857 J.725 E.06497
G1 X151.183 Y177.239 E.19867
G1 X151.183 Y178.146 E.06807
G1 X153.081 Y180.043 E.20131
G2 X153.19 Y181.06 I6.791 J-.216 E.07677
G1 X151.183 Y179.053 E.2129
G1 X151.183 Y179.961 E.06807
G1 X153.412 Y182.189 E.23646
G2 X153.842 Y183.527 I9.331 J-2.265 E.10554
G1 X151.183 Y180.868 E.28214
G1 X151.183 Y181.775 E.06807
G1 X154.672 Y185.264 E.37018
G1 X154.795 Y185.485 E.01895
G2 X158.995 Y189.587 I10.317 J-6.361 E.44488
G1 X162.486 Y193.078 E.37042
G1 X161.579 Y193.078 E.06807
G1 X151.183 Y182.682 E1.10301
G1 X151.183 Y183.59 E.06807
G1 X160.672 Y193.078 E1.00675
M73 P1 R43
G1 X159.764 Y193.078 E.06807
G1 X151.183 Y184.497 E.91049
G1 X151.183 Y185.404 E.06807
G1 X158.857 Y193.078 E.81422
G1 X157.95 Y193.078 E.06807
G1 X151.183 Y186.311 E.71796
G1 X151.183 Y187.219 E.06807
G1 X157.043 Y193.078 E.6217
G1 X156.135 Y193.078 E.06807
G1 X151.183 Y188.126 E.52544
G1 X151.183 Y189.033 E.06807
G1 X155.228 Y193.078 E.42918
G1 X154.321 Y193.078 E.06807
G1 X150.896 Y189.653 E.36336
G1 E-.25 F3600
;WIPE_START
G1 F4800
G1 X151.603 Y190.361 E-.75
;WIPE_END
EXCLUDE_OBJECT_END NAME=OrcaCube_id_0_copy_0
EXCLUDE_OBJECT_START NAME=OrcaPlug_id_1_copy_0
G1 X153.395 Y182.941 Z.69 F27000
G1 X153.82 Y181.182 Z.69
G1 X153.819 Y181.174
G1 X153.755 Y180.752
G1 X153.707 Y180.326
G1 X153.674 Y179.899
G1 X153.658 Y179.471
G1 X153.658 Y179.051
G1 X153.674 Y178.623
G1 X153.707 Y178.195
G1 X153.755 Y177.769
G1 X153.818 Y177.355
G1 X153.898 Y176.933
G1 X153.994 Y176.515
G1 X159.473 Y155.33
G1 Z.29
G1 E1 F3600
;TYPE:Outer wall
;WIDTH:0.7
G1 F2400
G1 X159.13 Y155.091 E.03114
G3 X155.179 Y144.478 I6.221 J-8.358 E.89305
G3 X168.534 Y136.824 I10.165 J2.259 E1.29201
G3 X171.188 Y138.114 I-3.274 J10.112 E.22082
G3 X175.762 Y146.777 I-5.915 J8.662 E.76024
G3 X164.999 Y157.147 I-10.439 J-.064 E1.24247
G3 X159.88 Y155.601 I.352 J-10.414 E.40332
G1 X159.506 Y155.352 E.03352
G1 X159.478 Y155.25
;WIPE_START
G1 X159.13 Y155.091 E-.45746
G1 X158.709 Y154.749 E-.54254
;WIPE_END
G1 X159.018 Y154.368 Z.69 F27000
G1 X161.591 Y154.631
G1 X168.109 Y139.894
